X: 14886
T: Gate, The
R: reel
M: 4/4
K: Gdorian
|ggge dBBB|dBBB dBAB|ggge dBBB|dBAc BEEE|
ggge dBBB|dBBB d2ef|gbag edBd|egfa g3:|
bbba ggge|dBBB d2Bd|eBBB dBeB|eBBB d2ga|
bbba ggge|dBBB d2ef|gbag edBd|egfa g3:|

